icons/dislike.svg

<svg width="24" height="24" viewBox="0 0 24 24" fill="none" xmlns="http://www.w3.org/2000/svg">
<path d="M4.55077 4.55078C4.10275 5.03075 3.73741 5.60063 3.47391 6.23179C3.18067 6.93419 3.0199 7.69727 3.00173 8.47299C2.98357 9.2487 3.10839 10.0202 3.36835 10.739C3.62831 11.4578 4.01777 12.1083 4.51221 12.6495L12.0083 21L16.2618 16.2618" stroke="#1E293B" stroke-width="2" stroke-linecap="round" stroke-linejoin="round"/>
<path d="M1 1L23 23" stroke="#1E293B" stroke-width="2" stroke-linecap="round" stroke-linejoin="round"/>
<path d="M8.5275 3.0318C9.2135 3.11411 9.87693 3.35529 10.476 3.74016C11.0751 4.12503 11.5968 4.64525 12.0083 5.26805C12.4216 4.64977 12.944 4.1341 13.5426 3.75331C14.1413 3.37253 14.8034 3.13483 15.4875 3.05509C16.1715 2.97535 16.8629 3.05529 17.5182 3.2899C18.1736 3.52452 18.7788 3.90875 19.2961 4.41857C19.8134 4.92838 20.2315 5.55279 20.5243 6.25273C20.8172 6.95266 20.9784 7.71305 20.998 8.4863C21.0175 9.25956 20.895 10.029 20.638 10.7466C20.381 11.4641 19.9951 12.1142 19.5044 12.6563M19.5044 12.6495L18.627 13.627" stroke="#1E293B" stroke-width="2" stroke-linecap="round" stroke-linejoin="round"/>
</svg>

<svg
  width="24"
  height="24"
  viewBox="0 0 24 24"
  xmlns="http://www.w3.org/2000/svg"
  fill="none"
  stroke="currentColor"
  stroke-width="2"
  stroke-linecap="round"
  stroke-linejoin="round"
>
  <path d="M4.55 4.55a5.65 5.65 0 0 0-1.076 1.682 6.204 6.204 0 0 0-.472 2.241 6.245 6.245 0 0 0 .366 2.266c.26.719.65 1.37 1.144 1.91L12.008 21l4.254-4.738" />
  <path d="M1 1l22 22" />
  <path d="M8.527 3.032a4.62 4.62 0 0 1 1.949.708c.6.385 1.12.905 1.532 1.528a5.234 5.234 0 0 1 1.535-1.515 4.618 4.618 0 0 1 1.945-.698c.684-.08 1.375 0 2.03.235.656.235 1.26.619 1.778 1.129a5.61 5.61 0 0 1 1.228 1.834 6.249 6.249 0 0 1 .114 4.494 5.713 5.713 0 0 1-1.134 1.91m0-.008l-.877.978" />
</svg>
